Origami/32x32/apps/adventure-capitalist.svg

<svg width="32" height="32" version="1.1" xmlns="http://www.w3.org/2000/svg">
 <path d="m11.416016 5.0327181 0.111328 0.00391s-1.9319159-0.1406343-3.9980471 0.6054687c-1.0330657 0.3730478-2.1651688 0.9910637-3.0605469 2.0605432s-1.46875 2.583746-1.46875 4.320313c0 1.736566 0.5733719 3.248879 1.46875 4.318359 0.8953781 1.069479 2.0274812 1.689448 3.0605469 2.0625 2.0661312 0.746103 3.9980471 0.605469 3.9980471 0.605469l-0.111328 0.0039h8.552734a2.0002 2.0002 0 0 0 0.119141 -0.0039s1.152836-0.03511 2.179687 0.359375c1.026851 0.394484 1.732422 0.711664 1.732422 2.632812 0 1.921149-0.705571 2.238328-1.732422 2.632813-1.026851 0.394484-2.179687 0.361328-2.179687 0.361328a2.0002 2.0002 0 0 0 -0.119141 -0.0039h-11.96875a2.0002 2.0002 0 1 0 0 4h11.96875l-0.117188-0.0039s1.861232 0.144733 3.84961-0.61914c1.988378-0.763886 4.298828-2.942084 4.298828-6.367201 0-3.425116-2.31045-5.601361-4.298828-6.365234s-3.84961-0.621094-3.84961-0.621094l0.117188-2e-3h-8.552734a2.0002 2.0002 0 0 0 -0.111328 2e-3s-1.276342 0.03921-2.4179692-0.373047c-0.5708139-0.206127-1.0440311-0.501811-1.3515626-0.86914-0.3075314-0.36733-0.5351562-0.813434-0.5351562-1.75 0-0.936567 0.2276247-1.384624 0.5351562-1.751954 0.3075316-0.367329 0.7807487-0.6610599 1.3515626-0.8671871 1.1416272-0.4122545 2.4179692-0.375 2.4179692-0.375a2.0002 2.0002 0 0 0 0.111328 0.00391h11.583984a2.0002 2.0002 0 1 0 0 -4h-11.583984z" style="opacity:.2"/>
 <path d="m15.970703 1.9721713a2.0002 2.0002 0 0 0 -1.970703 2.0273437v24.544922 1.455078a2.0002 2.0002 0 1 0 4 0v-1.455078-24.544922a2.0002 2.0002 0 0 0 -2.029297 -2.0273437z" style="fill-rule:evenodd;opacity:.2"/>
 <path d="m8 25.992615h11.969542s6.030458 0.356418 6.030458-4.989848c0-5.346265-6.030458-4.989847-6.030458-4.989847h-8.554024s-6.415518 0.356418-6.415518-4.989847c0-5.3462653 6.415518-4.9898476 6.415518-4.9898476h11.584482" style="fill:none;stroke-linecap:round;stroke-linejoin:round;stroke-width:4;stroke:#ffc73a"/>
 <path d="m11.193359 4.0273438c-0.640201-0.0045799-2.1144637 0.0556571-3.6640621 0.6152343-1.0330657 0.3730478-2.1651688 0.9910674-3.0605469 2.0605469s-1.46875 2.5837457-1.46875 4.320313c0 0.169423 0.0108027 0.335048 0.0214844 0.5 0.0988045-1.5260888 0.6392425-2.8551742 1.4472656-3.820313 0.8953781-1.0694795 2.0274812-1.6874991 3.0605469-2.0605469 1.8939536-0.6839277 3.6030091-0.6243208 3.8867191-0.609375h11.583984a2.0002 2.0002 0 0 1 1.962891 1.5 2.0002 2.0002 0 0 0 -1.962891 -2.5h-11.583984c-0.051588-0.0027174-0.080402-0.0048417-0.222657-0.0058593zm-4.1601559 7.4960942c-0.0174466 0.152995-0.0332031 0.310316-0.0332031 0.5 0 0.936565 0.2276248 1.38267 0.5351562 1.75 0.3075315 0.367328 0.7807486 0.663013 1.3515626 0.86914 1.1416272 0.412257 2.4179692 0.373047 2.4179692 0.373047a2.0002 2.0002 0 0 1 0.111328 -0.001953h8.490234c0.148231-0.009792 1.890897-0.10842 3.794922 0.623047 1.889579 0.725917 4.065324 2.728632 4.277344 5.865234 0.011153-0.164501 0.021484-0.329282 0.021484-0.5 0-3.425116-2.31045-5.601361-4.298828-6.365234-1.888959-0.72568-3.612458-0.634119-3.785156-0.623047h-8.5a2.0002 2.0002 0 0 0 -0.111328 0.001953s-1.276342 0.03921-2.4179692-0.373047c-0.570814-0.206127-1.0440311-0.501812-1.3515626-0.86914-0.2452467-0.292935-0.4332568-0.648082-0.5019531-1.25zm16.941406 9.978515c-0.119675 1.470704-0.779151 1.776349-1.707031 2.132813-1.026851 0.394484-2.179687 0.361328-2.179687 0.361328a2.0002 2.0002 0 0 0 -0.119141 -0.003906h-11.96875a2.0002 2.0002 0 0 0 -1.9628906 2.5 2.0002 2.0002 0 0 1 1.9628906 -1.5h11.96875a2.0002 2.0002 0 0 1 0.119141 0.003906s1.152836 0.033156 2.179687-0.361328c1.026851-0.394485 1.732422-0.711664 1.732422-2.632813 0-0.185167-0.012626-0.343129-0.025391-0.5z" style="fill:#ffffff;opacity:.2"/>
 <path d="m16 3v24.545845 1.454155" style="fill:none;stroke-linecap:round;stroke-linejoin:round;stroke-width:4;stroke:#ffc73a"/>
 <path d="M 15.970703 0.97265625 A 2.0002 2.0002 0 0 0 14 3 L 14 4 A 2.0002 2.0002 0 0 1 15.970703 1.9726562 A 2.0002 2.0002 0 0 1 18 4 L 18 3 A 2.0002 2.0002 0 0 0 15.970703 0.97265625 z" style="fill-rule:evenodd;fill:#ffffff;opacity:.2"/>
</svg>

<svg xmlns="http://www.w3.org/2000/svg" width="32" height="32" version="1.1">
 <path style="opacity:0.2" d="m 11.416016,5.0327181 0.111328,0.00391 c 0,0 -1.9319159,-0.1406343 -3.9980471,0.6054687 C 6.4962312,6.0151446 5.3641281,6.6331605 4.46875,7.70264 3.5733719,8.7721195 3,10.286386 3,12.022953 c 0,1.736566 0.5733719,3.248879 1.46875,4.318359 0.8953781,1.069479 2.0274812,1.689448 3.0605469,2.0625 2.0661312,0.746103 3.9980471,0.605469 3.9980471,0.605469 l -0.111328,0.0039 8.552734,0 a 2.0002,2.0002 0 0 0 0.119141,-0.0039 c 0,0 1.152836,-0.03511 2.179687,0.359375 C 23.294429,19.76314 24,20.08032 24,22.001468 c 0,1.921149 -0.705571,2.238328 -1.732422,2.632813 -1.026851,0.394484 -2.179687,0.361328 -2.179687,0.361328 a 2.0002,2.0002 0 0 0 -0.119141,-0.0039 l -11.96875,0 a 2.0002,2.0002 0 1 0 0,4 l 11.96875,0 -0.117188,-0.0039 c 0,0 1.861232,0.144733 3.84961,-0.61914 C 25.68955,27.604783 28,25.426585 28,22.001468 28,18.576352 25.68955,16.400107 23.701172,15.636234 21.712794,14.872361 19.851562,15.01514 19.851562,15.01514 l 0.117188,-0.002 -8.552734,0 a 2.0002,2.0002 0 0 0 -0.111328,0.002 c 0,0 -1.276342,0.03921 -2.4179692,-0.373047 C 8.3159049,14.435966 7.8426877,14.140282 7.5351562,13.772953 7.2276248,13.405623 7,12.959519 7,12.022953 7,11.086386 7.2276247,10.638329 7.5351562,10.270999 7.8426878,9.90367 8.3159049,9.6099391 8.8867188,9.4038119 c 1.1416272,-0.4122545 2.4179692,-0.375 2.4179692,-0.375 a 2.0002,2.0002 0 0 0 0.111328,0.00391 l 11.583984,0 a 2.0002,2.0002 0 1 0 0,-4 l -11.583984,0 z"/>
 <path style="opacity:0.2;fill-rule:evenodd" d="M 15.970703,1.9721713 A 2.0002,2.0002 0 0 0 14,3.999515 l 0,24.544922 0,1.455078 a 2.0002,2.0002 0 1 0 4,0 L 18,28.544437 18,3.999515 A 2.0002,2.0002 0 0 0 15.970703,1.9721713 Z"/>
 <path style="fill:none;stroke:#ffc73a;stroke-width:4;stroke-linecap:round;stroke-linejoin:round" d="m 8,25.992615 11.969542,0 c 0,0 6.030458,0.356418 6.030458,-4.989848 0,-5.346265 -6.030458,-4.989847 -6.030458,-4.989847 l -8.554024,0 C 11.415518,16.01292 5,16.369338 5,11.023073 5,5.6768077 11.415518,6.0332254 11.415518,6.0332254 l 11.584482,0"/>
 <path style="opacity:0.2;fill:#ffffff" d="M 11.193359 4.0273438 C 10.553158 4.0227639 9.0788953 4.0830009 7.5292969 4.6425781 C 6.4962312 5.0156259 5.3641281 5.6336455 4.46875 6.703125 C 3.5733719 7.7726045 3 9.2868707 3 11.023438 C 3 11.192861 3.0108027 11.358486 3.0214844 11.523438 C 3.1202889 9.9973492 3.6607269 8.6682638 4.46875 7.703125 C 5.3641281 6.6336455 6.4962312 6.0156259 7.5292969 5.6425781 C 9.4232505 4.9586504 11.132306 5.0182573 11.416016 5.0332031 L 23 5.0332031 A 2.0002 2.0002 0 0 1 24.962891 6.5332031 A 2.0002 2.0002 0 0 0 23 4.0332031 L 11.416016 4.0332031 C 11.364428 4.0304857 11.335614 4.0283614 11.193359 4.0273438 z M 7.0332031 11.523438 C 7.0157565 11.676433 7 11.833754 7 12.023438 C 7 12.960003 7.2276248 13.406108 7.5351562 13.773438 C 7.8426877 14.140766 8.3159048 14.436451 8.8867188 14.642578 C 10.028346 15.054835 11.304688 15.015625 11.304688 15.015625 A 2.0002 2.0002 0 0 1 11.416016 15.013672 L 19.90625 15.013672 C 20.054481 15.00388 21.797147 14.905252 23.701172 15.636719 C 25.590751 16.362636 27.766496 18.365351 27.978516 21.501953 C 27.989669 21.337452 28 21.172671 28 21.001953 C 28 17.576837 25.68955 15.400592 23.701172 14.636719 C 21.812213 13.911039 20.088714 14.0026 19.916016 14.013672 L 11.416016 14.013672 A 2.0002 2.0002 0 0 0 11.304688 14.015625 C 11.304688 14.015625 10.028346 14.054835 8.8867188 13.642578 C 8.3159048 13.436451 7.8426877 13.140766 7.5351562 12.773438 C 7.2899095 12.480503 7.1018994 12.125356 7.0332031 11.523438 z M 23.974609 21.501953 C 23.854934 22.972657 23.195458 23.278302 22.267578 23.634766 C 21.240727 24.02925 20.087891 23.996094 20.087891 23.996094 A 2.0002 2.0002 0 0 0 19.96875 23.992188 L 8 23.992188 A 2.0002 2.0002 0 0 0 6.0371094 26.492188 A 2.0002 2.0002 0 0 1 8 24.992188 L 19.96875 24.992188 A 2.0002 2.0002 0 0 1 20.087891 24.996094 C 20.087891 24.996094 21.240727 25.02925 22.267578 24.634766 C 23.294429 24.240281 24 23.923102 24 22.001953 C 24 21.816786 23.987374 21.658824 23.974609 21.501953 z"/>
 <path style="fill:none;stroke:#ffc73a;stroke-width:4;stroke-linecap:round;stroke-linejoin:round" d="M 16,3 16,27.545845 16,29"/>
 <path style="opacity:0.2;fill:#ffffff;fill-rule:evenodd" d="M 15.970703 0.97265625 A 2.0002 2.0002 0 0 0 14 3 L 14 4 A 2.0002 2.0002 0 0 1 15.970703 1.9726562 A 2.0002 2.0002 0 0 1 18 4 L 18 3 A 2.0002 2.0002 0 0 0 15.970703 0.97265625 z"/>
</svg>
